X:1
T:Vallgossens visa
T:Vallgossens visa
T:Tule hem och tula vall
T:Alice Tegnér
T:Public Domain
C:Alice Tegnér
Z:Alice Tegnér
Z:Public Domain
%%score 1 { ( 2 3 ) | ( 4 5 ) }
L:1/8
M:3/4
K:G
V:1 treble nm="Röst" snm="Så."
V:2 treble nm="Piano" snm="Pno."
V:3 treble 
V:4 bass 
V:5 bass 
V:1
 B>G E2 G2 | F>^D E2 z2 | B,>B, G2 G2 | F2 E2 z2 :| GA B2 G2 | AF A4 | EF G2 E2 | F^D F4 | %8
w: Tu- la hem och|tu- la vall,|Tu- la långt åt|mos- sen,|Mjöl- ken var båd'|gul och blå,|O- sten såg jag|li- tet å',|
w: Kål fick jag när|jag kom hem,|Kål fick jag i|på- sen.|||||
 B,^D F2 AG | F2 E2 z2 | z6 | z6 |] %12
w: Smö- ret smak- te jag|al- drig.|||
w: ||||
V:2
 B>G E2 [EG]2 | [B,^DF]>D [B,E]2 z2 | B,>B, [EG]2 [EG]2 | [^DF]2 E2 z2 :| [B,G][DA] [GB]2 [DG]2 | %5
 AF A4 | [B,E][^DF] [EG]2 E2 | [^DF][B,D] [DF]4 | z z F2 AG | [^DF]2 E2 z2 | B>^d B>f B>b | %11
 (e2 e'2) z2 |] %12
V:3
 [B,E]4 B,2 | x6 | x6 | x6 :| x6 | D4 C2 | x6 | x6 | B,^D- D2- D2 | x6 | x6 | x6 |] %12
V:4
 [E,G,]4 [E,G,]2 | [E,A,]2 [E,G,]2 z2 | [B,,E,G,]4 [B,,B,]2 | [B,,A,]2 [E,G,]2 z2 :| %4
 [G,,D,]4 [G,B,]2 | [D,F,]4 [^D,F,]2 | G,A, B,2 ^A,2 | B,F, B,4 | ^D,F, A,2 CB, | %9
 [B,,A,] [E,G,]2 z z2 | [B,^DF]6 | ([EG]2 E,2) z2 |] %12
V:5
 x6 | x6 | x6 | x6 :| x6 | x6 | E,4 C,2 | B,,6 | B,,6 | x6 | x6 | x6 |] %12

